X:750
T:Korolenko
R:jig
C:Jean-Paul Loyer
Z:transcribed by Dave Marshall
M:6/8
K:G
BA |: G3 GFG | DED DBA | G2G GFG | G2E EAB |
c3 cBc | d3 dcB |1 ABA AGA | BGE DBA :|2 AGE DBA | G3 G2D |
|: E3 E2D | E2F G2E | DGG AGA | BAB dBG |
E3 E2D | E2F G2E | DGG AGA |1 BGF G2F :|2 BGF G3 |
